X: 542
T: Denizin Dalgasını Bekliyorum
C: Şemseddin Ziya Bey
O: Turkey
F: http://compmusic.upf.edu/node/140
N: sehnaz--sarki--aksak--denizin_dalgasini--semseddin_ziya_bey
N: makam= sehnaz
N: form= sarki
N: usul= aksak = 9/8
M: 9/8
L: 1/16
K: C _7/8B ^1/4f ^c ^g
Q: 1/4=216
%%MIDI tuningsystem comma53
aga=b .a2.e2 fed2 e2f2 g2 | a2 =b=c'd'2 c'bba aga4z2  | 
w:  ARANAĞME  |   | 
aga=b .a2.e2 fed2 {=g}f2e2 d2 | cd efed2c{d}cB2A{B}A3efg  | 
w:   |   | 
aga=b .a2.e2 fed2 e2f2 g2 | a2 =b=c'd'2 c'bba aga4z2  | 
w:  ARANAĞME  |   | 
aga=b .a2.e2 fed2 {=g}f2e2 d2 | cd efed2c{d}cB2A{B}A3efg  | 
w:   |   | 
a4 a2a2 {a}=c'4 =b4 a2 | g2 a2=b2 baa8z2  | \
w:  *  De ni *  zin   |  dal *  ga sı *  nı   | 
a4 d'2=c'2 =b2a2 =g2f2 e2 | 
w:  bek li yo rum   | 
d4=b2 baag abg2 f2e2  | g2a6 a4 {=b}agfe d2 | \
w:  din li yo *  rum   |  of   | 
g2 a6ag fede fgfg  | 
w:  of   *  SAZ  | 
a4 a2a2 {a}=c'4 =b4 a2 | g2 a2=b2 baa8z2  | \
w:  *  De ni *  zin   |  dal *  ga sı *  nı   | 
a4 d'2=c'2 =b2a2 =g2f2 e2 | 
w:  bek li yo rum   | 
d4=b2 baag abg2 f2e2  | d2e6 e4 {f}e2d2 c2 | \
w:  din li yo *  rum   |  of   | 
d2 e6a=g ^3/4fede fgfg  | 
w:  of   SAZ  | 
a4 d2a2 a4 =g4 ^3/4f2 | =b3aa2 =g2ag ^3/4f^3/4ef2 g2^g2  | \
w:  *  Bir  ha ber   |  al *  mı *  yo *  *  *  rum   | 
a2a4a2 a2g2 =f2e2 d2 | 
w:  *  ağ lı yo *  rum   | 
c4d4cB BAAB cde2  | d3c {d}B2d2 c2B2 A2B2 c2 | \
w:  in li yo *  *  *  rum   |  of   | 
A6 =gaag ^3/4fede fgfg  | 
w:  of   SAZ  | 
a4 d2a2 a4 =g4 ^3/4f2 | =b3aa2 =g2ag ^3/4f^3/4ef2 g2^g2  | \
w:  *  Bir  ha ber   |  al *  mı *  yo *  *  *  rum   | 
a2a4a2 a2g2 =f2e2 d2 | 
w:  *  ağ lı yo *  rum   | 
c4d4cB BAAB cde2  | d3c {d}B2d2 c2B2 A2B2 c2 | \
w:  in li yo *  *  *  rum   |  of   | 
A6 =b=c'ba =gab3/2c'/ baga  | 
w:  of   SAZ  | 
=b4 a2b2 b4 b2a2 =g2 | =c'2 c'2=b2 a2a2 {c'}baa4z2  | \
w:  *  Se ni  ru hum   |  so ru *  *  yor   | 
=g2a2 =b2{c'}ba agg^3/4f {a}g4 z2 | 
w:  kuş *  la *  *  *  ra   | 
^3/4f2 =g2a3gag ^f^ef4z2  | g2a6 a4 ag=fe d2 | \
w:  yıl *  dız *  la *  *  *  ra   |  of   | 
g2 a4 =b=c'ba =gab3/2c'/ baga  | 
w:  of   *  SAZ  | 
=b4 a2b2 b4 b2a2 =g2 | =c'2 c'2=b2 a2a2 {c'}baa4z2  | \
w:  *  Se ni  ru hum   |  so ru *  *  yor   | 
=g2a2 =b2{c'}ba agg^3/4f {a}g4 z2 | 
w:  kuş *  la *  *  *  ra   | 
^3/4f2 =g2a3gag ^f^ef4z2  | d2e6 e4 e2d2 c2 | \
w:  yıl *  dız *  la *  *  *  ra   |  of   | 
d2 e4 =gaag ^3/4fede fgfg  | 
w:  of   *  SAZ  | 
a4 d2a2 a4 =g4 ^3/4f2 | =b3aa2 =g2ag ^3/4f^3/4ef2 g2^g2  | \
w:  *  Bir  ha ber   |  al *  mı *  yo *  *  *  rum   | 
a2a4a2 a2g2 =f2e2 d2 | 
w:  *  ağ lı yo *  rum   | 
c4d4cB BAAB cde2  | d3c {d}B2d2 c2B2 A2B2 c2 | \
w:  in li yo *  *  *  rum   |  of   | 
A6 =gaag ^3/4fede fgfg  | 
w:  of   SAZ  | 
a4 d2a2 a4 =g4 ^3/4f2 | =b3aa2 =g2ag ^3/4f^3/4ef2 g2^g2  | \
w:  *  Bir  ha ber   |  al *  mı *  yo *  *  *  rum   | 
a2a4a2 a2g2 =f2e2 d2 | 
w:  *  ağ lı yo *  rum   | 
c4d4cB BAAB cde2  | d3c {d}B2d2 c2B2 A2B2 c2 | \
w:  in li yo *  *  *  rum   |  of   | 
A6 efed cBA4z2  | 
w:  KARAR  | 
|


